assets/svgs/gba.svg

<?xml version="1.0" encoding="utf-8"?>
<svg id="svg2" version="1.1" viewBox="0 0 264 73" xmlns="http://www.w3.org/2000/svg">
  <g transform="matrix(0.880001, 0, 0, 0.875525, 0.000039, -0.000066)">
    <path d="M 286.97198486328125 0.484000027179718 L 300 0.484000027179718 L 281.63299560546875 29.05699920654297 L 278.65399169921875 51.347999572753906 L 266.8800048828125 51.347999572753906 L 270.33099365234375 25.913000106811523 L 258.5570068359375 0.484000027179718 L 271.2720031738281 0.484000027179718 L 277.5539855957031 14.928999900817871 Z" id="_43443024" style="fill: rgb(255, 255, 255);"/>
    <path d="M 149.7729949951172 31.253000259399414 L 165.30999755859375 31.253000259399414 L 166.88099670410156 19.951000213623047 L 151.49899291992188 19.951000213623047 L 152.60000610351562 11.78600025177002 L 170.49099731445312 11.78600025177002 L 172.2209930419922 0.484000027179718 L 142.55099487304688 0.484000027179718 L 135.48699951171875 51.347999572753906 L 164.9980010986328 51.347999572753906 L 166.5679931640625 40.04100036621094 L 148.67300415039062 40.04100036621094 Z" id="_43441624" style="fill: rgb(255, 255, 255);"/>
    <path id="_43775888" d="M 59.352 26.227 L 63.277 15.71 L 64.534 26.227 L 59.353 26.227 Z M 55.114 36.274 L 65.787 36.274 L 67.673 51.344 L 86.98 51.344 L 95.929 23.715 L 100.325 51.344 L 110.53 51.344 L 121.832 22.146 L 123.716 51.344 L 135.017 51.344 L 131.878 0.482 L 118.377 0.482 L 107.858 27.325 L 103.776 0.482 L 91.689 0.482 L 77.874 42.239 L 72.694 0.482 L 57.624 0.482 L 40.826 42.708 L 43.024 26.227 L 22.614 26.227 L 21.2 36.272 L 30.149 36.272 L 29.52 39.726 C 27.951 40.667 24.341 40.825 22.928 40.825 C 21.516 40.825 10.998 39.884 11.468 28.58 C 11.936 17.279 27.005 6.761 44.901 12.569 L 46.629 1.737 C 34.698 -2.343 3.363 -0.059 0.161 27.952 C -1.721 44.436 13.35 52.285 23.395 52.13 C 29.203 52.444 35.798 50.246 38.151 48.989 L 37.367 51.344 L 49.298 51.344 L 55.106 36.274 Z" style="fill: rgb(255, 255, 255);"/>
    <path id="_44102912" d="M 245.841 0.014 C 237.678 -0.301 225.904 4.409 221.98 23.404 C 218.056 42.397 228.572 50.09 238.306 51.347 C 248.039 52.602 261.697 46.48 264.207 28.271 C 266.722 10.06 257.768 0.485 245.841 0.014 Z M 244.588 10.846 C 247.884 10.846 254.947 13.044 253.22 26.228 C 251.494 39.415 243.331 40.985 240.349 40.672 C 237.364 40.356 231.243 38.317 232.97 26.228 C 234.7 14.143 241.135 10.688 244.591 10.846 Z" style="fill: rgb(255, 255, 255);"/>
    <path id="_44104296" d="M 196.234 19.951 L 202.828 19.951 C 207.693 19.951 208.636 16.811 208.791 15.556 C 208.948 14.3 207.536 11.788 205.026 11.788 L 197.334 11.788 L 196.238 19.951 Z M 193.408 40.044 L 202.357 40.044 C 207.222 40.044 208.321 36.277 208.478 35.02 C 208.635 33.765 207.222 31.253 204.711 31.253 L 194.665 31.253 L 193.41 40.044 Z M 180.226 51.347 L 187.291 0.485 L 208.953 0.485 C 214.135 0.485 221.669 6.452 220.728 14.456 C 219.786 22.463 217.274 22.935 215.547 24.19 C 218.217 26.543 220.884 30.31 219.786 37.375 C 218.686 44.441 212.878 51.347 202.676 51.347 L 180.227 51.347 Z" style="fill: rgb(255, 255, 255);"/>
    <path id="path12" d="M 61.895 56.917 L 55.235 56.917 L 39.537 83.346 L 58.226 83.346 L 58.226 77.487 L 50.609 77.487 L 58.226 63.825 L 69.268 83.378 L 77.779 83.378 L 77.779 83.316 L 91.07 83.316 C 102.573 83.316 108.341 78.875 108.341 70.087 C 108.341 68.575 108.155 67.157 107.754 65.831 L 118.362 83.317 L 123.451 83.317 L 138.716 56.95 L 130.636 56.95 L 121.105 74.217 L 111.052 56.948 L 102.356 56.948 L 104.761 60.895 C 101.956 58.243 97.915 56.948 92.642 56.948 L 75.156 56.948 L 75.156 78.873 L 61.895 56.917 L 61.895 56.917 Z M 82.681 62.898 L 92.705 62.898 C 97.915 62.898 100.567 65.181 100.567 69.744 C 100.567 72.49 99.736 74.495 98.162 75.542 C 96.65 76.622 93.783 77.146 89.774 77.146 L 82.712 77.146 L 82.712 62.898 L 82.681 62.898 Z" style="fill-opacity: 1; fill: rgb(255, 255, 255);"/>
    <path d="M 149.9720001220703 56.91699981689453 L 143.27999877929688 56.91699981689453 L 127.64299774169922 83.34500122070312 L 135.53900146484375 83.34500122070312 L 135.53900146484375 83.28299713134766 L 146.33200073242188 83.28299713134766 L 146.33200073242188 77.39299774169922 L 138.7779998779297 77.39299774169922 L 146.27200317382812 63.79399871826172 L 157.31199645996094 83.34500122070312 L 165.9149932861328 83.34500122070312 L 165.9149932861328 83.28299713134766 L 170.2949981689453 83.28299713134766 L 170.2949981689453 67.33999633789062 L 190.2480010986328 83.28299713134766 L 195.42799377441406 83.28299713134766 L 195.42799377441406 56.91699981689453 L 188.52000427246094 56.91699981689453 L 188.52000427246094 72.67400360107422 L 168.3820037841797 56.91699981689453 L 163.2310028076172 56.91699981689453 L 163.2310028076172 78.84300231933594 Z" id="polygon14" style="fill-opacity: 1; fill: rgb(255, 255, 255);"/>
    <path id="path16" d="M 199.376 58.395 C 198.296 59.353 197.742 61.079 197.742 63.547 L 197.742 76.622 C 197.742 79.151 198.296 80.878 199.345 81.834 C 200.363 82.791 202.212 83.284 204.928 83.284 L 220.439 83.284 C 223.123 83.284 225.065 82.791 226.083 81.834 C 227.1 80.879 227.687 79.151 227.687 76.622 L 227.687 72.952 L 220.07 72.83 L 220.07 76.9 L 205.328 76.9 L 205.328 63.054 L 220.07 63.054 L 220.07 66.662 L 227.687 66.662 L 227.687 63.547 C 227.687 60.957 227.101 59.229 226.083 58.395 C 225.065 57.378 223.277 56.885 220.439 56.885 L 204.928 56.885 C 202.244 56.917 200.393 57.38 199.376 58.395 L 199.376 58.395 Z" style="fill-opacity: 1; fill: rgb(255, 255, 255);"/>
    <path d="M 237.83200073242188 66.69300079345703 L 237.83200073242188 62.89799880981445 L 258.4010009765625 62.89799880981445 L 258.4010009765625 56.91699981689453 L 230.21499633789062 56.91699981689453 L 230.21499633789062 83.28299713134766 L 258.739990234375 83.28299713134766 L 258.739990234375 77.177001953125 L 237.83200073242188 77.177001953125 L 237.83200073242188 72.48999786376953 L 249.88999938964844 72.48999786376953 L 249.88999938964844 66.69300079345703 Z" id="polygon18" style="fill-opacity: 1; fill: rgb(255, 255, 255);"/>
  </g>
</svg>

<?xml version="1.0" encoding="UTF-8" standalone="no"?>
<svg
   xmlns:dc="http://purl.org/dc/elements/1.1/"
   xmlns:cc="http://creativecommons.org/ns#"
   xmlns:rdf="http://www.w3.org/1999/02/22-rdf-syntax-ns#"
   xmlns:svg="http://www.w3.org/2000/svg"
   xmlns="http://www.w3.org/2000/svg"
   xmlns:sodipodi="http://sodipodi.sourceforge.net/DTD/sodipodi-0.dtd"
   xmlns:inkscape="http://www.inkscape.org/namespaces/inkscape"
   id="svg2"
   version="1.1"
   sodipodi:docname="gba.svg"
   width="264"
   height="72.999992"
   inkscape:version="0.92.5 (2060ec1f9f, 2020-04-08)">
  <metadata
     id="metadata18">
    <rdf:RDF>
      <cc:Work
         rdf:about="">
        <dc:format>image/svg+xml</dc:format>
        <dc:type
           rdf:resource="http://purl.org/dc/dcmitype/StillImage" />
      </cc:Work>
    </rdf:RDF>
  </metadata>
  <defs
     id="defs16" />
  <sodipodi:namedview
     pagecolor="#ffffff"
     bordercolor="#666666"
     borderopacity="1"
     objecttolerance="10"
     gridtolerance="10"
     guidetolerance="10"
     inkscape:pageopacity="0"
     inkscape:pageshadow="2"
     inkscape:window-width="640"
     inkscape:window-height="480"
     id="namedview14"
     showgrid="false"
     inkscape:zoom="2.36"
     inkscape:cx="49.999672"
     inkscape:cy="22.999457"
     inkscape:window-x="72"
     inkscape:window-y="27"
     inkscape:window-maximized="0"
     inkscape:current-layer="svg2" />
  <g
     transform="matrix(0.880001,0,0,0.875525,-2.8857383e-4,4.6950333e-4)"
     id="g11">
    <path
       d="M 286.97198,0.48400003 H 300 L 281.633,29.056999 278.65399,51.348 H 266.88 L 270.33099,25.913 258.55701,0.48400003 H 271.272 L 277.55399,14.929 Z"
       id="_43443024"
       style="fill:#ffffff"
       inkscape:connector-curvature="0" />
    <path
       d="M 149.77299,31.253 H 165.31 l 1.571,-11.302 h -15.38201 l 1.10102,-8.165 H 170.491 l 1.72999,-11.30199997 h -29.67 L 135.487,51.348 h 29.511 l 1.56999,-11.307 H 148.673 Z"
       id="_43441624"
       style="fill:#ffffff"
       inkscape:connector-curvature="0" />
    <path
       id="_43775888"
       d="m 59.352,26.227 3.925,-10.517 1.257,10.517 h -5.181 z m -4.238,10.047 h 10.673 l 1.886,15.07 H 86.98 l 8.949,-27.629 4.396,27.629 h 10.205 l 11.302,-29.198 1.884,29.198 h 11.301 L 131.878,0.482 H 118.377 L 107.858,27.325 103.776,0.482 H 91.689 L 77.874,42.239 72.694,0.482 H 57.624 L 40.826,42.708 43.024,26.227 H 22.614 L 21.2,36.272 h 8.949 l -0.629,3.454 c -1.569,0.941 -5.179,1.099 -6.592,1.099 -1.412,0 -11.93,-0.941 -11.46,-12.245 C 11.936,17.279 27.005,6.761 44.901,12.569 L 46.629,1.737 C 34.698,-2.343 3.363,-0.059 0.161,27.952 -1.721,44.436 13.35,52.285 23.395,52.13 c 5.808,0.314 12.403,-1.884 14.756,-3.141 l -0.784,2.355 h 11.931 l 5.808,-15.07 z"
       style="fill:#ffffff"
       inkscape:connector-curvature="0" />
    <path
       id="_44102912"
       d="m 245.841,0.014 c -8.163,-0.315 -19.937,4.395 -23.861,23.39 -3.924,18.993 6.592,26.686 16.326,27.943 9.733,1.255 23.391,-4.867 25.901,-23.076 C 266.722,10.06 257.768,0.485 245.841,0.014 Z m -1.253,10.832 c 3.296,0 10.359,2.198 8.632,15.382 -1.726,13.187 -9.889,14.757 -12.871,14.444 -2.985,-0.316 -9.106,-2.355 -7.379,-14.444 1.73,-12.085 8.165,-15.54 11.621,-15.382 z"
       style="fill:#ffffff"
       inkscape:connector-curvature="0" />
    <path
       id="_44104296"
       d="m 196.234,19.951 h 6.594 c 4.865,0 5.808,-3.14 5.963,-4.395 0.157,-1.256 -1.255,-3.768 -3.765,-3.768 h -7.692 l -1.096,8.163 z m -2.826,20.093 h 8.949 c 4.865,0 5.964,-3.767 6.121,-5.024 0.157,-1.255 -1.256,-3.767 -3.767,-3.767 h -10.046 l -1.255,8.791 z m -13.182,11.303 7.065,-50.862 h 21.662 c 5.182,0 12.716,5.967 11.775,13.971 -0.942,8.007 -3.454,8.479 -5.181,9.734 2.67,2.353 5.337,6.12 4.239,13.185 -1.1,7.066 -6.908,13.972 -17.11,13.972 h -22.449 z"
       style="fill:#ffffff"
       inkscape:connector-curvature="0" />
    <path
       id="path12"
       d="m 61.895,56.917 h -6.66 L 39.537,83.346 h 18.689 v -5.859 h -7.617 l 7.617,-13.662 11.042,19.553 h 8.511 V 83.316 H 91.07 c 11.503,0 17.271,-4.441 17.271,-13.229 0,-1.512 -0.186,-2.93 -0.587,-4.256 l 10.608,17.486 h 5.089 L 138.716,56.95 h -8.08 l -9.531,17.267 -10.053,-17.269 h -8.696 l 2.405,3.947 C 101.956,58.243 97.915,56.948 92.642,56.948 H 75.156 v 21.925 z m 20.786,5.981 h 10.024 c 5.21,0 7.862,2.283 7.862,6.846 0,2.746 -0.831,4.751 -2.405,5.798 -1.512,1.08 -4.379,1.604 -8.388,1.604 H 82.712 V 62.898 Z"
       style="fill:#ffffff;fill-opacity:1"
       inkscape:connector-curvature="0" />
    <path
       d="m 149.972,56.917 h -6.692 l -15.637,26.428001 h 7.896 v -0.062 h 10.793 v -5.889999 h -7.554 l 7.494,-13.598999 11.04,19.551002 h 8.60299 v -0.062 H 170.295 V 67.339996 l 19.953,15.943001 h 5.17999 V 56.917 H 188.52 V 72.674004 L 168.382,56.917 h -5.151 v 21.926002 z"
       id="polygon14"
       style="fill:#ffffff;fill-opacity:1"
       inkscape:connector-curvature="0" />
    <path
       id="path16"
       d="m 199.376,58.395 c -1.08,0.958 -1.634,2.684 -1.634,5.152 v 13.075 c 0,2.529 0.554,4.256 1.603,5.212 1.018,0.957 2.867,1.45 5.583,1.45 h 15.511 c 2.684,0 4.626,-0.493 5.644,-1.45 1.017,-0.955 1.604,-2.683 1.604,-5.212 v -3.67 L 220.07,72.83 V 76.9 H 205.328 V 63.054 h 14.742 v 3.608 h 7.617 v -3.115 c 0,-2.59 -0.586,-4.318 -1.604,-5.152 -1.018,-1.017 -2.806,-1.51 -5.644,-1.51 h -15.511 c -2.684,0.032 -4.535,0.495 -5.552,1.51 z"
       style="fill:#ffffff;fill-opacity:1"
       inkscape:connector-curvature="0" />
    <path
       d="m 237.832,66.693001 v -3.795002 h 20.569 V 56.917 h -28.186 v 26.365997 h 28.52499 V 77.177002 H 237.832 v -4.687004 h 12.058 v -5.796997 z"
       id="polygon18"
       style="fill:#ffffff;fill-opacity:1"
       inkscape:connector-curvature="0" />
  </g>
</svg>
